documentation/public/assets/images/number-input-dos-and-donts-01.svg

<svg width="144" height="72" viewBox="0 0 144 72" fill="none" xmlns="http://www.w3.org/2000/svg">
<path d="M7.47159 9.5625C7.41856 9.06629 7.19508 8.67992 6.80114 8.40341C6.41099 8.12689 5.90341 7.98864 5.27841 7.98864C4.83902 7.98864 4.46212 8.05492 4.14773 8.1875C3.83333 8.32008 3.5928 8.5 3.42614 8.72727C3.25947 8.95455 3.17424 9.21402 3.17045 9.50568C3.17045 9.74811 3.22538 9.95833 3.33523 10.1364C3.44886 10.3144 3.60227 10.4659 3.79545 10.5909C3.98864 10.7121 4.20265 10.8144 4.4375 10.8977C4.67235 10.9811 4.90909 11.0511 5.14773 11.108L6.23864 11.3807C6.67803 11.483 7.10038 11.6212 7.50568 11.7955C7.91477 11.9697 8.2803 12.1894 8.60227 12.4545C8.92803 12.7197 9.18561 13.0398 9.375 13.4148C9.56439 13.7898 9.65909 14.2292 9.65909 14.733C9.65909 15.4148 9.48485 16.0152 9.13636 16.5341C8.78788 17.0492 8.28409 17.4527 7.625 17.7443C6.9697 18.0322 6.17614 18.1761 5.24432 18.1761C4.33902 18.1761 3.55303 18.036 2.88636 17.7557C2.22348 17.4754 1.70455 17.0663 1.32955 16.5284C0.958333 15.9905 0.757576 15.3352 0.727273 14.5625H2.80114C2.83144 14.9678 2.95644 15.3049 3.17614 15.5739C3.39583 15.8428 3.68182 16.0436 4.03409 16.1761C4.39015 16.3087 4.78788 16.375 5.22727 16.375C5.68561 16.375 6.08712 16.3068 6.43182 16.1705C6.7803 16.0303 7.05303 15.8371 7.25 15.5909C7.44697 15.3409 7.54735 15.0492 7.55114 14.7159C7.54735 14.4129 7.45833 14.1629 7.28409 13.9659C7.10985 13.7652 6.86553 13.5985 6.55114 13.4659C6.24053 13.3295 5.87689 13.2083 5.46023 13.1023L4.13636 12.7614C3.17803 12.5152 2.42045 12.142 1.86364 11.642C1.31061 11.1383 1.03409 10.4697 1.03409 9.63636C1.03409 8.95076 1.2197 8.35038 1.59091 7.83523C1.96591 7.32008 2.47538 6.92045 3.11932 6.63636C3.76326 6.34848 4.49242 6.20455 5.30682 6.20455C6.13258 6.20455 6.85606 6.34848 7.47727 6.63636C8.10227 6.92045 8.5928 7.31629 8.94886 7.82386C9.30492 8.32765 9.48864 8.9072 9.5 9.5625H7.47159ZM17.0099 14.3295V9.27273H19.0668V18H17.0724V16.4489H16.9815C16.7846 16.9375 16.4607 17.3371 16.0099 17.6477C15.563 17.9583 15.0118 18.1136 14.3565 18.1136C13.7846 18.1136 13.2789 17.9867 12.8395 17.733C12.4039 17.4754 12.063 17.1023 11.8168 16.6136C11.5705 16.1212 11.4474 15.5265 11.4474 14.8295V9.27273H13.5043V14.5114C13.5043 15.0644 13.6558 15.5038 13.9588 15.8295C14.2618 16.1553 14.6596 16.3182 15.152 16.3182C15.455 16.3182 15.7486 16.2443 16.0327 16.0966C16.3168 15.9489 16.5497 15.7292 16.7315 15.4375C16.9171 15.142 17.0099 14.7727 17.0099 14.3295ZM21.2727 18V6.36364H23.3295V10.7159H23.4148C23.5208 10.5038 23.6705 10.2784 23.8636 10.0398C24.0568 9.79735 24.3182 9.59091 24.6477 9.42045C24.9773 9.24621 25.3977 9.15909 25.9091 9.15909C26.5833 9.15909 27.1913 9.33144 27.733 9.67614C28.2784 10.017 28.7102 10.5227 29.0284 11.1932C29.3504 11.8598 29.5114 12.678 29.5114 13.6477C29.5114 14.6061 29.3542 15.4205 29.0398 16.0909C28.7254 16.7614 28.2973 17.2727 27.7557 17.625C27.214 17.9773 26.6004 18.1534 25.9148 18.1534C25.4148 18.1534 25 18.0701 24.6705 17.9034C24.3409 17.7367 24.0758 17.536 23.875 17.3011C23.678 17.0625 23.5246 16.8371 23.4148 16.625H23.2955V18H21.2727ZM23.2898 13.6364C23.2898 14.2008 23.3693 14.6951 23.5284 15.1193C23.6913 15.5436 23.9242 15.875 24.2273 16.1136C24.5341 16.3485 24.9053 16.4659 25.3409 16.4659C25.7955 16.4659 26.1761 16.3447 26.483 16.1023C26.7898 15.8561 27.0208 15.5208 27.1761 15.0966C27.3352 14.6686 27.4148 14.1818 27.4148 13.6364C27.4148 13.0947 27.3371 12.6136 27.1818 12.1932C27.0265 11.7727 26.7955 11.4432 26.4886 11.2045C26.1818 10.9659 25.7992 10.8466 25.3409 10.8466C24.9015 10.8466 24.5284 10.9621 24.2216 11.1932C23.9148 11.4242 23.6818 11.7481 23.5227 12.1648C23.3674 12.5814 23.2898 13.072 23.2898 13.6364ZM31.2599 9.27273H33.3168V18.5C33.3168 19.1288 33.1974 19.6477 32.9588 20.0568C32.7202 20.4659 32.3755 20.7708 31.9247 20.9716C31.474 21.1723 30.9266 21.2727 30.2827 21.2727C30.2069 21.2727 30.1368 21.2708 30.0724 21.267C30.008 21.267 29.938 21.2652 29.8622 21.2614V19.5852C29.919 19.589 29.9702 19.5909 30.0156 19.5909C30.0611 19.5947 30.1084 19.5966 30.1577 19.5966C30.5516 19.5966 30.8338 19.5 31.0043 19.3068C31.1747 19.1174 31.2599 18.839 31.2599 18.4716V9.27273ZM32.2827 8.03409C31.9531 8.03409 31.6709 7.92614 31.4361 7.71023C31.205 7.49053 31.0895 7.22727 31.0895 6.92045C31.0895 6.60985 31.205 6.34659 31.4361 6.13068C31.6709 5.91098 31.9531 5.80114 32.2827 5.80114C32.6084 5.80114 32.8868 5.91098 33.1179 6.13068C33.3527 6.34659 33.4702 6.60985 33.4702 6.92045C33.4702 7.22727 33.3527 7.49053 33.1179 7.71023C32.8868 7.92614 32.6084 8.03409 32.2827 8.03409ZM39.2955 18.1705C38.4205 18.1705 37.6648 17.9886 37.0284 17.625C36.3958 17.2576 35.9091 16.7386 35.5682 16.0682C35.2273 15.3939 35.0568 14.6004 35.0568 13.6875C35.0568 12.7898 35.2273 12.0019 35.5682 11.3239C35.9129 10.642 36.3939 10.1117 37.0114 9.73295C37.6288 9.35038 38.3542 9.15909 39.1875 9.15909C39.7254 9.15909 40.233 9.24621 40.7102 9.42045C41.1913 9.59091 41.6155 9.85606 41.983 10.2159C42.3542 10.5758 42.6458 11.0341 42.858 11.5909C43.0701 12.1439 43.1761 12.803 43.1761 13.5682V14.1989H36.0227V12.8125H41.2045C41.2008 12.4186 41.1155 12.0682 40.9489 11.7614C40.7822 11.4508 40.5492 11.2064 40.25 11.0284C39.9545 10.8504 39.6098 10.7614 39.2159 10.7614C38.7955 10.7614 38.4261 10.8636 38.108 11.0682C37.7898 11.2689 37.5417 11.5341 37.3636 11.8636C37.1894 12.1894 37.1004 12.5473 37.0966 12.9375V14.1477C37.0966 14.6553 37.1894 15.0909 37.375 15.4545C37.5606 15.8144 37.8201 16.0909 38.1534 16.2841C38.4867 16.4735 38.8769 16.5682 39.3239 16.5682C39.6231 16.5682 39.8939 16.5265 40.1364 16.4432C40.3788 16.3561 40.589 16.2292 40.767 16.0625C40.9451 15.8958 41.0795 15.6894 41.1705 15.4432L43.0909 15.6591C42.9697 16.1667 42.7386 16.6098 42.3977 16.9886C42.0606 17.3636 41.6288 17.6553 41.1023 17.8636C40.5758 18.0682 39.9735 18.1705 39.2955 18.1705ZM48.723 18.1705C47.8518 18.1705 47.1037 17.9792 46.4787 17.5966C45.8575 17.214 45.3783 16.6856 45.0412 16.0114C44.7079 15.3333 44.5412 14.553 44.5412 13.6705C44.5412 12.7841 44.7116 12.0019 45.0526 11.3239C45.3935 10.642 45.8745 10.1117 46.4957 9.73295C47.1207 9.35038 47.8594 9.15909 48.7116 9.15909C49.42 9.15909 50.0469 9.28977 50.5923 9.55114C51.1416 9.80871 51.5791 10.1742 51.9048 10.6477C52.2306 11.1174 52.4162 11.6667 52.4616 12.2955H50.4957C50.4162 11.875 50.2268 11.5246 49.9276 11.2443C49.6321 10.9602 49.2363 10.8182 48.7401 10.8182C48.3196 10.8182 47.9503 10.9318 47.6321 11.1591C47.3139 11.3826 47.0658 11.7045 46.8878 12.125C46.7135 12.5455 46.6264 13.0492 46.6264 13.6364C46.6264 14.2311 46.7135 14.7424 46.8878 15.1705C47.062 15.5947 47.3063 15.9223 47.6207 16.1534C47.9389 16.3807 48.312 16.4943 48.7401 16.4943C49.0431 16.4943 49.3139 16.4375 49.5526 16.3239C49.795 16.2064 49.9976 16.0379 50.1605 15.8182C50.3234 15.5985 50.4351 15.3314 50.4957 15.017H52.4616C52.4124 15.6345 52.2306 16.1818 51.9162 16.6591C51.6018 17.1326 51.1738 17.5038 50.6321 17.7727C50.0904 18.0379 49.4541 18.1705 48.723 18.1705ZM58.5085 9.27273V10.8636H53.4915V9.27273H58.5085ZM54.7301 7.18182H56.7869V15.375C56.7869 15.6515 56.8286 15.8636 56.9119 16.0114C56.9991 16.1553 57.1127 16.2538 57.2528 16.3068C57.393 16.3598 57.5483 16.3864 57.7188 16.3864C57.8475 16.3864 57.965 16.3769 58.071 16.358C58.1809 16.339 58.2642 16.322 58.321 16.3068L58.6676 17.9148C58.5578 17.9527 58.4006 17.9943 58.196 18.0398C57.9953 18.0852 57.7491 18.1117 57.4574 18.1193C56.9422 18.1345 56.4782 18.0568 56.0653 17.8864C55.6525 17.7121 55.3248 17.4432 55.0824 17.0795C54.8438 16.7159 54.7263 16.2614 54.7301 15.7159V7.18182ZM67.0014 11.5795L65.1264 11.7841C65.0734 11.5947 64.9806 11.4167 64.848 11.25C64.7192 11.0833 64.545 10.9489 64.3253 10.8466C64.1056 10.7443 63.8366 10.6932 63.5185 10.6932C63.0904 10.6932 62.7306 10.786 62.4389 10.9716C62.151 11.1572 62.009 11.3977 62.0128 11.6932C62.009 11.947 62.1018 12.1534 62.2912 12.3125C62.4844 12.4716 62.8026 12.6023 63.2457 12.7045L64.7344 13.0227C65.5601 13.2008 66.1738 13.483 66.5753 13.8693C66.9806 14.2557 67.1851 14.7614 67.1889 15.3864C67.1851 15.9356 67.0241 16.4205 66.706 16.8409C66.3916 17.2576 65.9541 17.5833 65.3935 17.8182C64.8329 18.053 64.1889 18.1705 63.4616 18.1705C62.3935 18.1705 61.5336 17.947 60.8821 17.5C60.2306 17.0492 59.8423 16.4223 59.7173 15.6193L61.723 15.4261C61.8139 15.8201 62.0071 16.1174 62.3026 16.3182C62.598 16.5189 62.9825 16.6193 63.456 16.6193C63.9446 16.6193 64.3366 16.5189 64.6321 16.3182C64.9313 16.1174 65.081 15.8693 65.081 15.5739C65.081 15.3239 64.9844 15.1174 64.7912 14.9545C64.6018 14.7917 64.3063 14.6667 63.9048 14.5795L62.4162 14.267C61.5791 14.0928 60.9598 13.7992 60.5582 13.3864C60.1567 12.9697 59.9579 12.4432 59.9616 11.8068C59.9579 11.2689 60.1037 10.803 60.3991 10.4091C60.6984 10.0114 61.1132 9.70455 61.6435 9.48864C62.1776 9.26894 62.7931 9.15909 63.4901 9.15909C64.5128 9.15909 65.3177 9.37689 65.9048 9.8125C66.4957 10.2481 66.8613 10.8371 67.0014 11.5795Z" fill="#1F1F1F"/>
<path d="M40.5 32.5H103.5V71.5H40.5V32.5Z" fill="white"/>
<path d="M61 58.1591C60.1439 58.1591 59.4148 57.9261 58.8125 57.4602C58.2102 56.9905 57.75 56.3106 57.4318 55.4205C57.1136 54.5265 56.9545 53.447 56.9545 52.1818C56.9545 50.9242 57.1136 49.8504 57.4318 48.9602C57.7538 48.0663 58.2159 47.3845 58.8182 46.9148C59.4242 46.4413 60.1515 46.2045 61 46.2045C61.8485 46.2045 62.5739 46.4413 63.1761 46.9148C63.7822 47.3845 64.2443 48.0663 64.5625 48.9602C64.8845 49.8504 65.0455 50.9242 65.0455 52.1818C65.0455 53.447 64.8864 54.5265 64.5682 55.4205C64.25 56.3106 63.7898 56.9905 63.1875 57.4602C62.5852 57.9261 61.8561 58.1591 61 58.1591ZM61 56.9091C61.8485 56.9091 62.5076 56.5 62.9773 55.6818C63.447 54.8636 63.6818 53.697 63.6818 52.1818C63.6818 51.1742 63.5739 50.3163 63.358 49.608C63.1458 48.8996 62.839 48.3598 62.4375 47.9886C62.0398 47.6174 61.5606 47.4318 61 47.4318C60.1591 47.4318 59.5019 47.8466 59.0284 48.6761C58.5549 49.5019 58.3182 50.6705 58.3182 52.1818C58.3182 53.1894 58.4242 54.0455 58.6364 54.75C58.8485 55.4545 59.1534 55.9905 59.5511 56.358C59.9527 56.7254 60.4356 56.9091 61 56.9091Z" fill="#757575"/>
<path d="M40.5 32.5H103.5V71.5H40.5V32.5Z" stroke="#545454"/>
<mask id="path-4-inside-1_11653_104276" fill="white">
<path d="M0 36C0 33.7909 1.79086 32 4 32H40V72H4C1.79086 72 0 70.2091 0 68V36Z"/>
</mask>
<path d="M0 36C0 33.7909 1.79086 32 4 32H40V72H4C1.79086 72 0 70.2091 0 68V36Z" fill="white"/>
<path d="M28.0001 52.38H12.0001C11.7926 52.38 11.6201 52.2102 11.6201 52C11.6201 51.7861 11.7863 51.62 12.0001 51.62H28.0001C28.2077 51.62 28.3801 51.7898 28.3801 52C28.3801 52.2139 28.214 52.38 28.0001 52.38Z" fill="#0F67F5" stroke="#757575"/>
<path d="M-1 36C-1 33.2386 1.23858 31 4 31H40V33H4C2.34315 33 1 34.3431 1 36H-1ZM40 73H4C1.23858 73 -1 70.7614 -1 68H1C1 69.6569 2.34315 71 4 71H40V73ZM4 73C1.23858 73 -1 70.7614 -1 68V36C-1 33.2386 1.23858 31 4 31V33C2.34315 33 1 34.3431 1 36V68C1 69.6569 2.34315 71 4 71V73ZM40 32V72V32Z" fill="#545454" mask="url(#path-4-inside-1_11653_104276)"/>
<mask id="path-7-inside-2_11653_104276" fill="white">
<path d="M104 32H140C142.209 32 144 33.7909 144 36V68C144 70.2091 142.209 72 140 72H104V32Z"/>
</mask>
<path d="M104 32H140C142.209 32 144 33.7909 144 36V68C144 70.2091 142.209 72 140 72H104V32Z" fill="white"/>
<path d="M123.62 52.88V52.38H123.12H116C115.793 52.38 115.62 52.2102 115.62 52C115.62 51.7861 115.786 51.62 116 51.62H123.12H123.62V51.12V44C123.62 43.7924 123.79 43.62 124 43.62C124.214 43.62 124.38 43.7861 124.38 44V51.12V51.62H124.88H132C132.208 51.62 132.38 51.7898 132.38 52C132.38 52.2139 132.214 52.38 132 52.38H124.88H124.38V52.88V60C124.38 60.2076 124.21 60.38 124 60.38C123.793 60.38 123.62 60.2102 123.62 60V52.88Z" fill="#0F67F5" stroke="#757575"/>
<path d="M104 31H140C142.761 31 145 33.2386 145 36H143C143 34.3431 141.657 33 140 33H104V31ZM145 68C145 70.7614 142.761 73 140 73H104V71H140C141.657 71 143 69.6569 143 68H145ZM104 72V32V72ZM140 31C142.761 31 145 33.2386 145 36V68C145 70.7614 142.761 73 140 73V71C141.657 71 143 69.6569 143 68V36C143 34.3431 141.657 33 140 33V31Z" fill="#545454" mask="url(#path-7-inside-2_11653_104276)"/>
</svg>

<svg width="144" height="72" fill="none" xmlns="http://www.w3.org/2000/svg"><path d="M7.47 9.56c-.05-.5-.27-.88-.67-1.16-.39-.27-.9-.4-1.52-.4-.44 0-.82.06-1.13.2-.32.13-.56.31-.72.54a1.31 1.31 0 0 0-.1 1.4c.12.18.27.34.47.46.19.12.4.22.64.3.23.1.47.16.7.22l1.1.27a7 7 0 0 1 1.27.42c.4.17.77.39 1.1.65.32.27.58.59.77.96.18.38.28.82.28 1.32a3.15 3.15 0 0 1-2.04 3.01 5.9 5.9 0 0 1-2.38.44c-.9 0-1.69-.14-2.35-.42a3.51 3.51 0 0 1-1.56-1.23 3.64 3.64 0 0 1-.6-1.97H2.8c.03.4.16.74.38 1.01s.5.47.85.6c.36.14.76.2 1.2.2.46 0 .86-.06 1.2-.2.35-.14.62-.33.82-.58.2-.25.3-.54.3-.87 0-.3-.1-.56-.27-.75-.17-.2-.41-.37-.73-.5a7.05 7.05 0 0 0-1.09-.37l-1.32-.34a5.33 5.33 0 0 1-2.28-1.12 2.58 2.58 0 0 1-.83-2 3 3 0 0 1 .56-1.8c.38-.52.89-.92 1.53-1.2A5.3 5.3 0 0 1 5.3 6.2c.82 0 1.55.15 2.17.44a3.6 3.6 0 0 1 1.47 1.18c.35.5.54 1.09.55 1.74H7.47Zm9.54 4.77V9.27h2.06V18h-2v-1.55h-.09c-.2.49-.52.89-.97 1.2-.45.3-1 .46-1.65.46a2.65 2.65 0 0 1-2.54-1.5 3.95 3.95 0 0 1-.37-1.78V9.27h2.05v5.24c0 .55.16 1 .46 1.32.3.33.7.49 1.2.49a1.89 1.89 0 0 0 1.57-.88c.19-.3.28-.67.28-1.11ZM21.27 18V6.36h2.06v4.36h.08c.11-.22.26-.44.45-.68a2.5 2.5 0 0 1 2.05-.88 3.33 3.33 0 0 1 3.12 2.03c.32.67.48 1.49.48 2.46 0 .96-.16 1.77-.47 2.44a3.3 3.3 0 0 1-3.13 2.06 2.53 2.53 0 0 1-2.04-.85 3.9 3.9 0 0 1-.46-.67h-.11V18h-2.03Zm2.02-4.36c0 .56.08 1.06.24 1.48.16.42.4.76.7 1 .3.23.68.35 1.11.35.46 0 .84-.13 1.14-.37.31-.24.54-.58.7-1 .16-.43.23-.92.23-1.46 0-.55-.07-1.03-.23-1.45a2.17 2.17 0 0 0-.7-.99c-.3-.23-.68-.35-1.14-.35-.44 0-.81.11-1.12.34-.3.23-.54.56-.7.97-.15.42-.23.91-.23 1.48Zm7.97-4.37h2.06v9.23c0 .63-.12 1.15-.36 1.56-.24.4-.58.71-1.04.91a4.02 4.02 0 0 1-1.85.3h-.2v-1.68a2.32 2.32 0 0 0 .29 0c.4 0 .67-.09.84-.28.17-.2.26-.47.26-.84v-9.2Zm1.02-1.24c-.33 0-.6-.1-.84-.32a1.05 1.05 0 0 1-.35-.79c0-.31.11-.57.35-.79.23-.22.51-.33.84-.33.33 0 .6.11.84.33a1.07 1.07 0 0 1 0 1.58c-.23.22-.51.32-.84.32Zm7.02 10.14a4.5 4.5 0 0 1-2.27-.55 3.7 3.7 0 0 1-1.46-1.55 5.21 5.21 0 0 1-.51-2.38c0-.9.17-1.69.5-2.37a3.87 3.87 0 0 1 3.63-2.16c.54 0 1.04.09 1.52.26s.9.44 1.27.8c.37.36.67.81.88 1.37.21.55.32 1.21.32 1.98v.63h-7.16v-1.4h5.18a1.96 1.96 0 0 0-.95-1.78c-.3-.18-.64-.27-1.03-.27a2 2 0 0 0-1.11.3 2.13 2.13 0 0 0-1.01 1.88v1.2c0 .52.09.95.27 1.31.2.36.45.64.78.83.34.2.73.29 1.17.29.3 0 .57-.04.82-.13.24-.08.45-.21.63-.38.18-.16.3-.37.4-.62l1.92.22a3 3 0 0 1-.7 1.33c-.33.37-.76.67-1.29.87-.52.2-1.13.31-1.8.31Zm9.42 0a3.83 3.83 0 0 1-3.68-2.16 5.24 5.24 0 0 1-.5-2.34c0-.89.17-1.67.51-2.35.34-.68.82-1.2 1.45-1.59a4.16 4.16 0 0 1 2.21-.57c.71 0 1.34.13 1.88.4a3.21 3.21 0 0 1 1.87 2.74H50.5a1.88 1.88 0 0 0-.57-1.06c-.3-.28-.7-.42-1.19-.42-.42 0-.79.11-1.1.34a2.1 2.1 0 0 0-.75.96 3.9 3.9 0 0 0-.26 1.52c0 .6.08 1.1.26 1.53.17.42.42.75.73.98.32.23.7.34 1.12.34.3 0 .57-.05.81-.17.25-.11.45-.28.61-.5a2 2 0 0 0 .34-.8h1.96a3.23 3.23 0 0 1-1.83 2.76 4.3 4.3 0 0 1-1.9.39Zm9.79-8.9v1.6h-5.02v-1.6h5.02Zm-3.78-2.09h2.06v8.2c0 .27.04.48.12.63.09.15.2.24.34.3.14.05.3.08.47.08a2.01 2.01 0 0 0 .6-.08l.35 1.6a4.59 4.59 0 0 1-1.21.2c-.52.02-.98-.05-1.4-.22a2.17 2.17 0 0 1-.98-.81 2.4 2.4 0 0 1-.35-1.36V7.18ZM67 11.58l-1.87.2a1.5 1.5 0 0 0-.8-.93 1.9 1.9 0 0 0-.81-.16c-.43 0-.79.1-1.08.28-.29.19-.43.43-.43.72 0 .26.1.46.28.62.2.16.51.3.96.4l1.48.31a3.8 3.8 0 0 1 1.85.85c.4.39.6.9.6 1.52 0 .55-.16 1.03-.47 1.45a3.1 3.1 0 0 1-1.32.98c-.56.23-1.2.35-1.93.35a4.48 4.48 0 0 1-2.58-.67 2.7 2.7 0 0 1-1.16-1.88l2-.2c.1.4.29.7.58.9.3.2.68.3 1.16.3.48 0 .88-.1 1.17-.3.3-.2.45-.45.45-.75a.8.8 0 0 0-.29-.62 2.02 2.02 0 0 0-.89-.37l-1.48-.31a3.54 3.54 0 0 1-1.86-.88 2.2 2.2 0 0 1-.6-1.58c0-.54.14-1 .44-1.4.3-.4.71-.7 1.24-.92a4.82 4.82 0 0 1 1.85-.33c1.02 0 1.83.22 2.41.65.6.44.96 1.03 1.1 1.77Z" fill="#1F1F1F"/><path d="M40.5 32.5h63v39h-63v-39Z" fill="#fff"/><path d="M61 58.16c-.86 0-1.59-.23-2.19-.7a4.37 4.37 0 0 1-1.38-2.04 9.7 9.7 0 0 1-.48-3.24c0-1.26.16-2.33.48-3.22a4.4 4.4 0 0 1 1.39-2.05c.6-.47 1.33-.7 2.18-.7.85 0 1.57.23 2.18.7.6.47 1.06 1.16 1.38 2.05.32.89.49 1.96.49 3.22a9.7 9.7 0 0 1-.48 3.24 4.37 4.37 0 0 1-1.38 2.04c-.6.47-1.33.7-2.19.7Zm0-1.25c.85 0 1.5-.41 1.98-1.23.47-.82.7-1.98.7-3.5 0-1-.1-1.86-.32-2.57a3.53 3.53 0 0 0-.92-1.62c-.4-.37-.88-.56-1.44-.56-.84 0-1.5.42-1.97 1.25a7.01 7.01 0 0 0-.71 3.5 9 9 0 0 0 .32 2.57c.2.7.51 1.24.91 1.6.4.38.89.56 1.45.56Z" fill="#757575"/><path d="M40.5 32.5h63v39h-63v-39Z" stroke="#545454"/><mask id="a" fill="#fff"><path d="M0 36a4 4 0 0 1 4-4h36v40H4a4 4 0 0 1-4-4V36Z"/></mask><path d="M0 36a4 4 0 0 1 4-4h36v40H4a4 4 0 0 1-4-4V36Z" fill="#fff"/><path d="M28 52.38H12a.38.38 0 0 1-.38-.38c0-.21.17-.38.38-.38h16c.2 0 .38.17.38.38s-.17.38-.38.38Z" fill="#0F67F5" stroke="#757575"/><path d="M-1 36a5 5 0 0 1 5-5h36v2H4a3 3 0 0 0-3 3h-2Zm41 37H4a5 5 0 0 1-5-5h2a3 3 0 0 0 3 3h36v2ZM4 73a5 5 0 0 1-5-5V36a5 5 0 0 1 5-5v2a3 3 0 0 0-3 3v32a3 3 0 0 0 3 3v2Zm36-41v40-40Z" fill="#545454" mask="url(#a)"/><mask id="b" fill="#fff"><path d="M104 32h36a4 4 0 0 1 4 4v32a4 4 0 0 1-4 4h-36V32Z"/></mask><path d="M104 32h36a4 4 0 0 1 4 4v32a4 4 0 0 1-4 4h-36V32Z" fill="#fff"/><path d="M123.62 52.88v-.5H116a.38.38 0 0 1-.38-.38c0-.21.17-.38.38-.38h7.62V44c0-.2.17-.38.38-.38s.38.17.38.38v7.62H132c.2 0 .38.17.38.38s-.17.38-.38.38h-7.62V60c0 .2-.17.38-.38.38a.38.38 0 0 1-.38-.38v-7.12Z" fill="#0F67F5" stroke="#757575"/><path d="M104 31h36a5 5 0 0 1 5 5h-2a3 3 0 0 0-3-3h-36v-2Zm41 37a5 5 0 0 1-5 5h-36v-2h36a3 3 0 0 0 3-3h2Zm-41 4V32v40Zm36-41a5 5 0 0 1 5 5v32a5 5 0 0 1-5 5v-2a3 3 0 0 0 3-3V36a3 3 0 0 0-3-3v-2Z" fill="#545454" mask="url(#b)"/></svg>
